X: 576
T: Dilküşâ Sazsemâîsi
C: Ârif Mehmed Ağa
O: Turkey
F: http://compmusic.upf.edu/node/140
N: dilkusa--sazsemaisi--aksaksemai----arif_mehmet_aga
N: makam= dilkusa
N: form= sazsemaisi
N: usul= aksaksemai = 10/8
M: 10/8
L: 1/16
K: C ^f ^c  
Q: 1/4=144
%%MIDI tuningsystem comma53
A4 B2c4dc e2c4A2  | B2A2 ^G2G2 A2B2 G2A4z2  | \
w:  1. HANE  |   | 
A4 B2c4d4Bc B2c2  | 
w:   | 
d4 e2c2 ded2 e2f4z2  | gag2 f2ag a2g2 f2e2 f2g2  | 
w:   |   | 
a4 g2g2 f2f2 e2d4e2  | g4 g2f2 g2gf a2f4z2  | \
w:   |   | 
f4 f2e2 f2fe g2e4z2  | 
w:   | 
=f4 e2d2 e2ed f2d4z2  | d4 d2c2 B2c2 d2e4=f2  | \
w:   |   | 
d4 e2c2 d2B2 c2A4^G2  | 
w:  MÜLÂZİME  | 
A3B c2d4e2 c2d4z2  | d4 e2c2 d2B2 c2A4^G2  | \
w:   |  MÜLÂZİME  | 
A3B c2d4e2 c2d4z2  | 
w:   | 
d4 c2B2 A2B2 c2d4e2  | c4 d2e2 f2f2 g2g4e2  | \
w:  2. HANE  |   | 
f4 d2e2 f2g2 a2g2 f2e2  | 
w:   | 
a4 g2ag aba2 g2f4z2  | g4 f2gf gag2 f2e4z2  | \
w:   |   | 
f4 e2fe fgf2 e2d4z2  | 
w:   | 
e4 d2c2 B2c2 d2e4f2  | d4 e2d2 c2B2 c2A4z2  | \
w:   |   | 
A4 B2c4d4e4=f2  | 
w:   | 
d4 e2c2 d2B2 c2A4^G2  | A3B c2d4e2 c2d4z2  | \
w:  MÜLÂZİME  |   | 
d4 e2c2 d2B2 c2A4^G2  | 
w:  MÜLÂZİME  | 
A3B c2d4e2 c2d4z2  | d4 a2g3ag2 f2a4z2  | \
w:   |  3. HANE  | 
fgfg a2b2 a2b2 g2a4g2  | 
w:   | 
f4 g2a2 b2d'2 c'2b4a2  | c'4 b2c'b c'd'c'2 b2a4z2  | \
w:   |   | 
b4 a2ba bc'b2 a2g4a2  | 
w:   | 
f4 g2f2 e2f2 g2a4b2  | g4 a2f4gf e2f4z2  | \
w:   |   | 
gfe2 d2e4ed c2d4z2  | 
w:   | 
c4 B2A2 B2c2 d2e4f2  | d4 e2c2 d2B2 c2A4^G2  | \
w:   |  MÜLÂZİME  | 
A3B c2d4e2 c2d4z2  | 
w:   | 
d4 e2c2 d2B2 c2A4^G2  | A3B c2d4e2 c2d4z2  | \
w:  MÜLÂZİME  |   | 
d4 e2d2 c2B2 A2G4z2  | 
w:  4. HANE  | 
c4 B2A2 G2G2 F2E4z2  | E4 F2G4A4B4A2  | \
w:   |   | 
G4 A2B4c4d4z2  | A4 B2c4d4e4z2  | 
w:   |   | 
d4 e2f4g4f2 e2a2  | g4 f2gf gagf e2f4g2  | \
w:   |   | 
f2e2 d2ef edc2 B2cd c2d2  | 
w:   | 
e4 =f2d4e2 d2e4f2  | d4 e2c2 d2B2 c2A4^G2  | \
w:   |  MÜLÂZİME  | 
A3B c2d4e2 c2d4z2  | 
w:   | 
d4 e2c2 d2B2 c2A4^G2  | A3B c2d4e2 c2d4z2  | |


